svg/fluentui-system-icons/ic_fluent_port_usb_a_20_regular.svg

<svg width="20" height="20" viewBox="0 0 20 20" fill="none" xmlns="http://www.w3.org/2000/svg">
<path d="M4.5 7C3.67157 7 3 7.67157 3 8.5V11.5C3 12.3284 3.67157 13 4.5 13H15.5C16.3284 13 17 12.3284 17 11.5V8.5C17 7.67157 16.3284 7 15.5 7H4.5ZM4 8.5C4 8.22386 4.22386 8 4.5 8H15.5C15.7761 8 16 8.22386 16 8.5V10H4V8.5Z" fill="#212121"/>
</svg>

<svg xmlns="http://www.w3.org/2000/svg" width="20" height="20"><path d="M4.5 7A1.5 1.5 0 0 0 3 8.5v3A1.5 1.5 0 0 0 4.5 13h11a1.5 1.5 0 0 0 1.5-1.5v-3A1.5 1.5 0 0 0 15.5 7h-11ZM4 8.5a.5.5 0 0 1 .5-.5h11a.5.5 0 0 1 .5.5V10H4V8.5Z"/></svg>
